X:4
M:6/8
L:1/8
K:G
| Gef | g2d e2d | g2d e2d | B2B dBG | A3 Aef | 
g2d e2d | g2d e2d | B2G A2B | G3 :|| 

